!!!OTL: 7. Dobranoch
!!!Genre:	Dobranoch
!!!Mode:	Minor
!!!Listening/dance:	listening
!!!One_Mode:	no
!!!Orig_tonic: G
**kern
*thru
*I"P1
*clefG2
*k[b-e-]
*g:
*M3/4
=1
!LO:TX:a:i:t=G-minor
4gg
4gg
4gg
=2
4aa-X
4gg
4ff
=3
4ee-
4dd
4ff
=4
2.cc
=5
4ff
4ff
4ff
=6
(8ffL
16ggL
16ffJJ)
4ee-
4dd
=7
4cc
4b-
4dd
=8
2cc
(8b-L
8aJ)
!!!Begin-Modulation
*g:
!LO:TX:a:i:t=G-minor
=13
4b-
4ddn
12ffL
12ee-
12ddJ
=14
4dd
4b-
12ee-L
12dd
12ccJ
=15
4.b-
8cc
8aL
8b-J
=
2g
8r
=16||
*>B
!!!Begin-Modulation
*g:
!LO:TX:a:i:t=G-minor
=21
4gg
4gg
4gg
=22
(8ggL
16aaL
16ggJJ)
4ff
4ee-
=23
2dd
8ccL
8b-J
=24
2.dd
!!!Begin-Modulation
*g:
!LO:TX:a:i:t=G-minor
=33||
(8qb-/
4bb-)
4aa
4gg
=34
4ff
4ee-
4dd
=35
(8qb-/
4gg)
4ff
4ee-
=36
4dd
4cc
4b-
=37
4a
4b-
4cc
=38
4dd
4ee-
4cc
=39
4b-
4f
4d
=40
4ff
4ee-
4dd
=41
(8qb-/
4bb-)
4aa
4gg
=42
4ff
4ee-
4dd
=43
(8qb-/
4gg)
4ff
4ee-
!!!End-Modulation
*g:
=44
4dd
4cc
4b-
=45
4a
4b-
4cc
=46
4dd
4ee-
4cc
=47
4.b-
8cc
8aL
8b-J
=48
2.g
==
*-
